!!!!SEGMENT: pl-sa--l-1643--075_anonim--sancti-mei-qui-in-carne-positi.krn
!!!cenid: 16xx:1433
!!!COM: Anonim
!!!COM-rismid: pe30004985
!!!CDT:
!!!CNT:
!!!OTL: Sancti mei qui in carne positi
!!!PDT:
!!!AGN: Sacred
!!!SMS-siglum: PL-SA
!!!SMS-shelfmark: L 1643
!!!SMS-shelfwork: 075 W
!!!SMS-variant:
!!!SMS-altvar:
!!!NIFC-rismid: 1001064742
!!!URL-scan: http://repozytorium.nifc.pl/skany/pl-sa-nut--l1643
!!!ONB-nifc: UWAGA: 8 ksiąg. Primi chori: 1mus Cantus (x), C 2dus (121-122), C 3tius (x), Bassus (x); Secondi chori: Primus Cantus (x), C 2dus (104-105), Altus (x), Bassus (x). UWAGA: Nie dodawać pustych linii, chyba że w rękopisie pojawiają się dodatkowe oznaczenia dotyczące pełnej obsady (a 4, a 8 itp.)
!!!key:
**kern	**text	**kern	**text
*part2	*part2	*part1	*part1
*staff2	*staff2	*staff1	*staff1
*Iempty	*	*Iempty	*
*I"Cantus 2dus Secundi Chori.	*	*I"Cantus 2dus Primi Chori.	*
*I'II Coro S 2	*	*I'I Coro S 2	*
*clefC1	*	*clefC1	*
*k[b-]	*	*k[b-]	*
*g:	*	*g:	*
*M2/1	*	*M2/1	*
*met(C|)	*	*met(C|)	*
=1-	=1-	=1-	=1-
0r	.	1b-	San-
.	.	1b-	-cti
=2-	=2-	=2-	=2-
1g	San-	0cc	me-
1cc	-cti	.	.
=3-	=3-	=3-	=3-
!	!	!LO:TX:b:t=P:problem=# below	!
!	!	!LO:N:acc=#	!
1b-	me-	1bn	-i
2a\	-i	2r	.
2r	.	1dd\	san-
=4-	=4-	=4-	=4-
0r	.	.	.
.	.	2dd\	-cti
.	.	2.b-\	me-
.	.	4cc\	.
=5-	=5-	=5-	=5-
2r	.	2dd\	-i
1b-\	qui	2r	.
.	.	0r	.
2b-\	in	.	.
=6-	=6-	=6-	=6-
2a\	car-	.	.
2g/	-ne	.	.
2a\	po-	1r	.
2g/	-si-	.	.
=7-	=7-	=7-	=7-
!LO:TX:b:t=P:problem=# below	!	!	!
2f#X/	-ti	2r	.
2r	.	1cc\	qui
0r	.	.	.
.	.	2cc\	in
=8-	=8-	=8-	=8-
!	!	!LO:TX:t=P:problem=dźwięk niewidoczny	!
.	.	2a\yy	car-
.	.	2cc\	-ne
1r	.	2b-\	po-
.	.	2b-\	-si-
=9-	=9-	=9-	=9-
2r	.	2a\	-ti
2a\	cer-	2r	.
1a	-ta-	2r	.
.	.	2a\	cer-
=10-	=10-	=10-	=10-
!	!	!LO:SIC:v:t=custos cc	!
!	!	!LO:SIC:v:t=custos słowny men	!
2a\	-men	1a	-ta-
2r	.	.	.
!	!	!LO:PB:g=original	!
2r	.	2cc\	-men
2b-\	cer-	2r	.
=11-	=11-	=11-	=11-
1b-	-ta-	2r	.
.	.	2b-\	cer-
2b-\	-men	1b-	-ta-
!LO:SIC:v:t=custos cc	!	!	!
2r	.	.	.
!LO:LB:g=original	!	!	!
=12-	=12-	=12-	=12-
2r	.	2dd\	-men
2cc\	cer-	2r	.
1cc	-ta-	2r	.
.	.	2cc\	cer-
=13-	=13-	=13-	=13-
1a	-men	1cc	-ta-
2b-\	ha-	2b-\	-men
2b-\	-bu-	2dd\	cer-
=14-	=14-	=14-	=14-
1b-	-iſ-	1dd	-ta-
2cc\	-tis	2cc\	-men
2r	.	1dd\	ha-
=15-	=15-	=15-	=15-
0r	.	.	.
.	.	2.b-\	-bu-
.	.	.	.
.	.	8a\L	.
.	.	8g\J	.
.	.	2a\	-i-
=16-	=16-	=16-	=16-
!LO:TX:t=P:problem=kreska pseudotaktowa, z kropkami	!	!LO:TX:t=P:problem=podwójna kreska pseudotaktowa	!
0r	.	0b-;	-ſtis;
.	.	.	.
=17||	=17||	=17||	=17||
1b-	Mer-	0r	.
2b-\	-ce-	.	.
2a\	-dem	.	.
=18-	=18-	=18-	=18-
2g/	la-	1r	.
!LO:TX:b:t=P:problem=# below	!	!	!
2f#X/	-bo-	.	.
2g/	-ris	2r	.
!	!	!LO:SIC:v:t=custos dd	!
2r	.	2dd\	Mer-
!	!	!LO:LB:g=original	!
=19-	=19-	=19-	=19-
0r	.	2dd\	-ce-
.	.	2b-\	-dem
.	.	2b-\	la-
.	.	2a\	-bo-
=20-	=20-	=20-	=20-
2r	.	2b-\	-ris
2dd\	mer-	2r	.
2dd\	-ce-	0r	.
2b-\	-dem	.	.
=21-	=21-	=21-	=21-
2b-\	la-	.	.
2a\	-bo-	.	.
2b-\	-ris	2r	.
!LO:SIC:v:t=custos słowny ego	!	!	!
!LO:SIC:v:t=custos dd	!	!	!
2r	.	2dd\	mer-
!LO:PB:g=original	!	!	!
=22-	=22-	=22-	=22-
00r	.	2b-\	-ce-
.	.	2cc\	-dem
.	.	2ee-X\	la-
.	.	2b-\	-bo-
=23-	=23-	=23-	=23-
.	.	2cc\	-ris
.	.	2dd\	e-
.	.	2g/	-go
.	.	2b-\	red-
=24-	=24-	=24-	=24-
00r	.	2g/	-dam
.	.	1b-\	e-
.	.	.	.
.	.	2b-\	-go
=25-	=25-	=25-	=25-
.	.	2cc\	red-
.	.	2dd\	-dam
!	!	!LO:SIC:v:t=custos dd	!
.	.	1eeny	vo-
!	!	!LO:LB:g=original	!
=26-	=26-	=26-	=26-
2r	.	2dd\	-bis
1dd\	e-	2r	.
.	.	0r	.
2dd\	-go	.	.
=27-	=27-	=27-	=27-
2ee-X\	red-	.	.
2dd\	-dam	.	.
1cc	vo-	1r	.
=28-	=28-	=28-	=28-
2b-\	-bis	2r	.
2r	.	1dd\	e-
0r	.	.	.
.	.	2dd\	-go
=29-	=29-	=29-	=29-
.	.	2b-\	red-
.	.	2b-\	-dam
1r	.	1cc	uo-
=30-	=30-	=30-	=30-
2r	.	1b-	-bis,
2dd\	ve-	.	.
1b-	-ni-	2r	.
.	.	2b-\	Ve-
=31-	=31-	=31-	=31-
1b-	-te,	1dd	-ni-
2r	.	1dd	-te
2dd\	ve-	.	.
=32-	=32-	=32-	=32-
1b-	-ni-	2r	.
.	.	2b-\	Ve-
1b-	-te	1dd	-ni-
=33-	=33-	=33-	=33-
!LO:TX:t=P:problem=zamazane pauzy	!	!	!
1r	.	2dd\	-te
.	.	1b-\	be-
1r	.	.	.
.	.	2dd\	-ne-
=34-	=34-	=34-	=34-
1r	.	1cc	-dic-
1r	.	2b-\	-ti
.	.	1a\	pa-
=35-	=35-	=35-	=35-
1r	.	.	.
.	.	2g/	-tris
!	!	!LO:SIC:v:t=custos b	!
1r	.	1a	me-
!	!	!LO:LB:g=original	!
=36-	=36-	=36-	=36-
2r	.	1b-	-i
2dd\	per-	.	.
2.cc\	-ci-	1r	.
4cc\	-pi-	.	.
=37-	=37-	=37-	=37-
1a	-te,	2r	.
.	.	2a\	per-
1r	.	2.b-\	-ci-
.	.	4b-\	-pi-
=38-	=38-	=38-	=38-
2r	.	2b-\	-te
!LO:SIC:v:t=custos cc	!	!	!
2b-\	per-	2r	.
!LO:LB:g=original	!	!	!
2.cc\	-ci-	1r	.
4cc\	-pi-	.	.
=39-	=39-	=39-	=39-
1cc	-te	2r	.
.	.	2cc\	per-
0r	.	2.cc\	-ci-
.	.	4cc\	-pi-
=40-	=40-	=40-	=40-
.	.	1dd	-te
1r	.	2.b-\	re-
.	.	4cc\	.
=41-	=41-	=41-	=41-
2r	.	1dd	-gnum
2b-\	per-	.	.
2.dd\	-ci-	2r	.
.	.	2dd\	per-
4dd\	-pi-	.	.
=42-	=42-	=42-	=42-
!LO:TX:t=P:global:problem=oddech jako rozdzielacz słów	!	!	!
2b-,<\	-te	2.dd\	-ci-
2dd\	per-	.	.
.	.	4dd\	-pi-
2.g/	-ci-	1.g	-te
4g/	-pi-	.	.
=43-	=43-	=43-	=43-
1b-,<	-te	.	.
.	.	1dd\	re-
1dd	re-	.	.
.	.	2a\	.
=44-	=44-	=44-	=44-
!	!	!LO:N:acc=#	!
0ddl	-gnum;	0bn;;	-gnum;
.	.	.	.
==	==	==	==
*-	*-	*-	*-
!!!system-decoration: s1,s2
!!!RDF**kern: < = below
!!!RDF**kern: l = terminal long
!!!AIN: 2 empty
!!!ENC: Filip Voros
!!!END: 2021-10-19
!!!ENC: Marta Lawrence
!!!END: 2021-10-22
